icons/health_worker.svg

<svg width="48" height="48" viewBox="0 0 48 48" fill="none" xmlns="http://www.w3.org/2000/svg">
<path fill-rule="evenodd" clip-rule="evenodd" d="M19 30C19 30 17.5028 27.8981 17 28.0126C11.5958 29.2434 6 32.7946 6 36.5699V42H42V36.5699C42 32.7946 36.4042 29.2434 31 28.0126C30.4972 27.8981 29 30 29 30H25.6851C24.5662 30.0002 24.1388 30.0002 23.5481 30.0001C23.183 30 22.7556 30 22.0639 30H19ZM25.6851 32C25.685 32 25.6852 32 25.6851 32C24.5663 32.0002 24.1384 32.0002 23.5476 32.0001C23.1825 32 22.7551 32 22.0639 32H17.9691L17.371 31.1604L17.3612 31.1468L17.3211 31.0915C17.2849 31.0421 17.2314 30.9698 17.1652 30.8826C17.0309 30.7057 16.8534 30.4794 16.6686 30.2633C16.643 30.2333 16.618 30.2045 16.5938 30.1769C14.4092 30.7797 12.2703 31.7722 10.6523 32.9527C8.72972 34.3554 8 35.6669 8 36.5699V40H40V36.5699C40 35.6669 39.2703 34.3554 37.3477 32.9527C35.7297 31.7722 33.5908 30.7797 31.4062 30.1769C31.382 30.2045 31.357 30.2333 31.3314 30.2633C31.1466 30.4794 30.9691 30.7057 30.8348 30.8826C30.7686 30.9698 30.7151 31.0421 30.6789 31.0915L30.6388 31.1468L30.6298 31.1592L30.629 31.1604L30.0309 32H25.6851Z" fill="black"/>
<path fill-rule="evenodd" clip-rule="evenodd" d="M32 38V32H34V38H32Z" fill="black"/>
<path fill-rule="evenodd" clip-rule="evenodd" d="M36 36H30V34H36V36Z" fill="black"/>
<path fill-rule="evenodd" clip-rule="evenodd" d="M24 24C28.4183 24 32 20.4183 32 16C32 11.5817 28.4183 8 24 8C19.5817 8 16 11.5817 16 16C16 20.4183 19.5817 24 24 24ZM24 26C29.5228 26 34 21.5228 34 16C34 10.4772 29.5228 6 24 6C18.4772 6 14 10.4772 14 16C14 21.5228 18.4772 26 24 26Z" fill="black"/>
</svg>

<svg
  xmlns="http://www.w3.org/2000/svg"
  width="24"
  height="24"
  viewBox="0 0 24 24"
  fill="none"
  stroke="currentColor"
  stroke-width="2"
  stroke-linecap="round"
  stroke-linejoin="round"
>
  <path
    fill-rule="evenodd"
    d="M19 30s-1.497-2.102-2-1.987c-5.404 1.23-11 4.782-11 8.557V42h36v-5.43c0-3.775-5.596-7.327-11-8.557-.503-.115-2 1.987-2 1.987H19m6.685 2H17.97l-.598-.84-.01-.013-.04-.055a16 16 0 0 0-.727-.915c-2.185.603-4.324 1.595-5.942 2.776C8.73 34.355 8 35.667 8 36.57V40h32v-3.43c0-.903-.73-2.215-2.652-3.617-1.618-1.18-3.757-2.173-5.942-2.776l-.075.086a14 14 0 0 0-.652.828l-.04.056-.01.012v.001l-.598.84z"
    clip-rule="evenodd"
  />
  <path fill-rule="evenodd" d="M32 38v-6h2v6z" clip-rule="evenodd" />
  <path fill-rule="evenodd" d="M36 36h-6v-2h6z" clip-rule="evenodd" />
  <path
    fill-rule="evenodd"
    d="M24 24a8 8 0 1 0 0-16 8 8 0 0 0 0 16m0 2c5.523 0 10-4.477 10-10S29.523 6 24 6s-10 4.477-10 10 4.477 10 10 10"
    clip-rule="evenodd"
  />
</svg>
